X: 257
T:Quite Correct. JaW.256
M:6/8
Q:110
S:James Winder Ms, Lancashire, 1835-41
R:Quadrille
O:England
A:Wyresdale,Lancashire
H:1/8
Z:vmp.Chris Partington, Aug 2004
K:G
d|g2g (gf)(g|d2)d (d^c)d|G2A B2c|d2d def|!
g2g gfg|d2d d^cd|Bed cBA|AGG G2:|!
|:d|d2d (d^c)e|e2e (e^d)e|f2f fed|a2A AB^c|!
d2d d^cd|e2e efg|fed ^cBc|d3-d2:|]
